X:1
T:Faisons le dire mensonger
T:Claude Goudimel
T:Source : Livre IX de 27 chansons nouvelles à 4 parties---Paris---N.du Chemin---1551. Editor : André Vierendeels (30/03/18). Notes : Original clefs : C1, C2, C3, F4 Original note values have been halved Editorial accidentals above the staff Square bracket indicates ligature
T:Faisons le dire mensonger
T:©
T:©
T:©
C:Claude Goudimel
Z:©
%%score [ 1 [ 2 3 ] 4 ]
L:1/8
Q:1/4=120
M:2/2
K:C
V:1 treble nm="Soprano" snm="S"
V:2 treble-8 nm="Tenor 1" snm="T 1"
V:3 treble-8 nm="Tenor 2" snm="T 2"
V:4 bass nm="Bass" snm="B"
V:1
 D4 A2 A2 | G3 E F2 F2 | E3 F GABG | AB c3 B A2- | A2 G2 A2 A2 | d2 d2 c2 A2 | c2 B4 A2- | %7
w: Fai- sons le|di- * * re|men- * son- * * *||* * ger, fai-|sons le di- re|men- son- *|
 A2 G2 E2 F2- | FE E4 D2 | E4 z2 E2 | F2 F2 G4- | G2 F2 E2 D2 | C2 c2 c2 c2 | d6 c2 | B2 A4 G2 | %15
w: ||ger, que|tout soubz le|_ ciel doibt chan-|ger, que tout soubz|le ciel|doibt chan- *|
[M:2/4] A2 F2 |: F2 F2 |[M:2/2] E2 C2 D2 D2 | C2 C2 C3 D | E2 F4 E2 | F4 z2 A2 | A2 A2 B2 B2 | %22
w: ger, mon-|strant par|l'ef- fect qu'on voir-|ra, par l'ef- fect|qu'on voir- *|ra, que|point no- stre'a- mour|
 c3 B AGFE | F2 F2 E2 G2 | G2 G2 F2 E2 | DEFD E2 D2- |1 D2 C2 D2 D2 :|2 D2 C2 D4- || D8 |] %29
w: chan- * * * * *|* ge- ra, que|point no- stre'a- mour|chan- * * * * *|* ge- ra, mon-|(chan)- ge- ra.|_|
V:2
 z4 A4 | e2 e2 d3 A | c2 c2 B2 B2 | d2 e3 d c2 | B4 A4 | z2 d2 f2 f2 | e3 B c2 d2 | e6 dc | %8
w: Fai-|sons le di- re|men son- ger, men-|son- * * *|* ger,|fai- sons le|di- * * re|men- * *|
 d2 G2 A4 | B4 c2 c2 | d2 d2 e3 d | c2 c2 B4 | z2 e2 e2 e2 | f6 e2 | d2 c2 B4 |[M:2/4] A2 A2 |: %16
w: son- * *|* ger, que|tout soubz le ciel|doibt chan- ger,|que tout soubz|le ciel|doibt chan- *|ger, mon-|
 A2 A2 |[M:2/2] c2 c2 F2 G2 | A4 z2 c2 | c2 B2 c2 c2 | c4 z2 c2 | d2 e2 f2 e2- | e2 c3 B e2- | %23
w: strant par|l'ef- fect qu'on voir-|ra, par|l'ef- fect qu'on voir-|ra, que|pont stre'a- mour chan-||
 e2 d2 e2 e2 | e2 d2 c4 | A4 cBAG |1 A2 A2 A2 A2 :|2 A2 A2 A4- || A8 |] %29
w: * ge- ra, que|point no- stre'a-|mour chan- * * *|* ge- ra, mon-|(chan)- ge- ra.|_|
V:3
 z8 | z4 D4 | A2 A2 G3 E | F2 E2 E4 | z2 G2 c2 c2 | B4 A4- | A2 G2 F4 | E2 G2 A2 c2- | cB B4 A2- | %9
w: |Fai-|sons le di- re|men- son- ger,|fai- sons le|di- re|_ men son-|ger, men- son- *||
 A2 G2 A2 A2 | A2 A2 c3 B/A/ | G2 A2 G2 G2 | E2 z A A2 A2 | D6 E2 | G2 A2 E4 |[M:2/4] z2 F2 |: %16
w: * * ger, que|tout soubz le _ _|_ ciel doibt chan-|ger, que tout soubz|le ciel|doibt chan- ger,|mon|
 F2 F2 |[M:2/2] G2 A2 D2 D2 | E2 A2 A2 A2 | G2 F2 G2 G2 | AGAB cBAG | FE A4 G2 | A4 z2 A2 | %23
w: strant par|l'ef- fect qu'on voir-|ra, mon strant par|l'ef- fect qu'on voir-|||ra, que|
 A2 A2 c4- | c2 B2 A2 G2 | FGAF GF FE/D/ |1 E4 D2 F2 :|2 E4 D4- || D8 |] %29
w: point no- stre'a-|* mour chan- ge-||* ra, mon-|(ge)- ra.|_|
V:4
 z8 | z8 | A,,4 E,2 E,2 | D,2 A,,2 C,3 D, | E,2 E,2 A,,4 | z8 | z8 | z2 E,2 A,2 A,2 | G,3 E, F,4 | %9
w: ||Fai- sons le|di- re men- *|* son- ger|||fai- sons le|di- re men-|
 E,4 A,,2 A,,2 | D,2 D,2 C,4- | C,2 F,,2 G,,2 G,,2 | A,,8 | z8 | z8 |[M:2/4] z2 D,2 |: D,2 D,2 | %17
w: son- ger, que|tout soubz le|_ ciel doibt chan-|ger,|||mon|strant par|
[M:2/2] C,2 F,,2 _B,,2 B,,2 | A,,2 F,,2 F,,G,,A,,B,, | C,2 D,2 C,2 C,2 | F,,2 F,2 F,3 E, | %21
w: l'ef- fect qu'on voir-|ra, par l'ef- * * *|* fect qu'on voir-|ra, que point no-|
 D,2 C,2 D,2 E,2 | A,,2 A,,2 A,,2 A,,2 | D,4 C,4 | z2 G,,2 A,,2 C,2 | D,3 D, C,2 D,2 |1 %26
w: stre'a- mour chan- ge-|ra, que point no-|stre'a- mour|que point no-|stre'a- mour chan- *|
 A,,4 D,2 D,2 :|2 A,,4 D,4- || D,8 |] %29
w: ge- ra, mon|ge- ra.|_|

